T: Curragh, The
M: 6/8
L: 1/8
K: Dmaj
A2 d dcd | BGB A2 g | faf dcd | ecA GFE |Add dB/c/d | BG/A/B A2 g | f/g/af Ace | d3 :|f2 d a2 d | fdf A2 f | e2 c a2 c | ece Age |fdd add | fd/e/f A2 g | fga Ace | d3- :|
